icons/moon-24.svg

<svg width="24" height="24" viewBox="0 0 24 24" fill="none" xmlns="http://www.w3.org/2000/svg">
<path fill-rule="evenodd" clip-rule="evenodd" d="M16.4995 5.99974C16.4995 11.7987 11.7985 16.4997 5.99949 16.4997C5.57362 16.4997 5.15328 16.4743 4.73999 16.4248C6.23353 18.8698 8.92742 20.5002 11.9995 20.5002C16.6939 20.5002 20.4995 16.6946 20.4995 12.0002C20.4995 8.9284 18.8693 6.2347 16.4247 4.74108C16.4741 5.1541 16.4995 5.57416 16.4995 5.99974ZM14.7675 3.96068C14.9193 4.61585 14.9995 5.29843 14.9995 5.99974C14.9995 10.9703 10.9701 14.9997 5.99949 14.9997C5.29793 14.9997 4.61511 14.9195 3.95972 14.7676C3.958 14.7672 3.95629 14.7668 3.95457 14.7664C3.89823 14.7533 3.8421 14.7397 3.78617 14.7256C3.57957 14.6733 3.37582 14.6139 3.17519 14.5477C2.78245 14.418 2.37552 14.7576 2.50571 15.1502C2.581 15.3772 2.6642 15.6006 2.75499 15.8201C2.78059 15.882 2.80679 15.9436 2.83359 16.0048C2.83508 16.0082 2.83657 16.0116 2.83807 16.015C4.38455 19.5389 7.90458 22.0002 11.9995 22.0002C17.5223 22.0002 21.9995 17.5231 21.9995 12.0002C21.9995 7.90561 19.5385 4.38578 16.015 2.83912C16.0116 2.83763 16.0082 2.83614 16.0048 2.83465C15.9436 2.80785 15.882 2.78164 15.8201 2.75604C15.6007 2.66523 15.3772 2.582 15.1502 2.5067C14.7577 2.37648 14.418 2.78338 14.5477 3.17613C14.6139 3.37676 14.6733 3.58052 14.7255 3.78713C14.7396 3.84305 14.7532 3.89919 14.7663 3.95553C14.7667 3.95724 14.7671 3.95896 14.7675 3.96068Z" fill="#24292E"/>
</svg>

<svg xmlns="http://www.w3.org/2000/svg" width="24" height="24" viewBox="0 0 24 24"><path fill-rule="evenodd" d="M16.5 6c0 5.799-4.701 10.5-10.5 10.5-.426 0-.847-.026-1.26-.075A8.5 8.5 0 1016.425 4.74c.05.413.075.833.075 1.259zm-1.732-2.04A9.08 9.08 0 0114.999 6a9 9 0 01-11.04 8.768l-.004-.002a9.367 9.367 0 01-.78-.218c-.393-.13-.8.21-.67.602a9.938 9.938 0 00.329.855l.004.01A10.002 10.002 0 0012 22a10.002 10.002 0 004.015-19.16l-.01-.005a9.745 9.745 0 00-.855-.328c-.392-.13-.732.276-.602.67a8.934 8.934 0 01.218.779l.002.005z"/></svg>
